X:8
T:No.41 Jimmy Lions's Highland
C:highland
M:4/4
L:1/8
K:A
A,>E C>E D2 F>D|E>A c>A B<B, B,>C|A,>E C>E D2 F>D|
|[1E>B G>B c<A A>B,:|[2E>B G>B c<A (3Ace||
a>e f>a e>A c>A|(3ddd c>d B<B, (3B,B,B,|a>e f>a e>A c>A|
E>B G>B c<A (3Ace|a>e f>a e>A c>A|
(3ddd c>d B<B, (3B,B,B,|A,>E C>E D2 F>D|E>B G>B c<A A>B,||
